public/assets/firebase-dark.svg

<?xml version="1.0" encoding="UTF-8"?>
<!DOCTYPE svg  PUBLIC '-//W3C//DTD SVG 1.1//EN'  'http://www.w3.org/Graphics/SVG/1.1/DTD/svg11.dtd'>
<svg version="1.1" viewBox="0 0 195 202" xmlns="http://www.w3.org/2000/svg" xmlns:xlink="http://www.w3.org/1999/xlink">
<defs>
<path id="c" d="m192.67 151.21v-99.57l-95.17-49.78-95.17 49.78v99.57l95.17 49.79 95.17-49.79z"/>
<path id="b" d="m192.67 151.21v-99.57l-95.17-49.78-95.17 49.78v99.57l95.17 49.79 95.17-49.79z"/>
<path id="a" d="m66.85 32.33l0.05 0.07 0.06 0.07 0.06 0.08 0.12 0.14 0.06 0.08 0.24 0.28 0.06 0.08 0.24 0.28 0.06 0.08 0.24 0.28 0.06 0.08 0.05 0.07 0.12 0.14 0.05 0.08 0.06 0.07 0.05 0.07 0.06 0.08 0.05 0.07 0.06 0.08 0.05 0.07 0.1 0.16 0.05 0.07 0.1 0.16 0.04 0.08 0.05 0.08 0.3 0.56 0.14 0.29 0.15 0.28 0.15 0.29 0.15 0.28 0.14 0.29 0.15 0.28 0.14 0.29 0.15 0.29 0.14 0.28 0.15 0.29 0.14 0.29 0.15 0.28 0.28 0.58 0.15 0.29 0.14 0.28 0.14 0.29 0.15 0.29 0.14 0.29 0.14 0.28 0.14 0.29 0.15 0.29 0.14 0.29 0.14 0.28 0.42 0.87 0.15 0.28 0.14 0.29 0.14 0.28 0.28 0.58 0.14 0.28 0.14 0.29 0.14 0.28 0.14 0.29 0.52 1.04 0.24 0.49 1.2 2.4 0.24 0.49 0.23 0.48 0.96 1.92 0.48 0.97 0.48 0.96 0.24 0.49 0.24 0.48 0.23 0.48 0.24 0.49 0.24 0.48 0.25 0.48 0.24 0.49 0.24 0.48 0.48 0.98 0.24 0.48 0.24 0.49 0.25 0.49 0.48 0.98 0.25 0.48 0.24 0.5 0.25 0.49 0.24 0.49 0.25 0.49 0.24 0.49 0.25 0.5 0.25 0.49 0.09-0.15 0.02-0.05 0.09-0.15 0.02-0.05 0.03-0.05 0.03-0.05 0.03-0.04 0.02-0.05 0.05-0.09 0.06-0.1 0.02-0.04 0.03-0.05 0.02-0.04 0.03-0.04 0.02-0.05 0.03-0.04 0.02-0.05 0.02-0.04 0.03-0.04 0.02-0.05 0.03-0.04 0.02-0.04 0.02-0.05 0.03-0.04 0.02-0.04 0.02-0.05 0.02-0.04 0.02-0.04 0.03-0.05 0.02-0.04 0.02-0.04 0.02-0.05 0.02-0.04 0.02-0.05 0.13-0.27 0.14-0.27 0.39-0.81 0.14-0.27 0.39-0.81 0.14-0.27 0.13-0.27 0.13-0.28 0.13-0.27 0.14-0.27 0.26-0.54 0.14-0.27 0.26-0.54 0.14-0.28 0.26-0.54 0.14-0.27 0.26-0.54 0.14-0.27 0.13-0.27 0.14-0.27 0.26-0.54 0.14-0.27 0.13-0.27 0.14-0.26 0.13-0.27 0.28-0.54 0.13-0.26 0.14-0.27 0.13-0.27 0.14-0.26 0.11-0.2 0.11-0.19 0.11-0.18 0.12-0.17 0.12-0.15 0.13-0.15 0.13-0.14 0.14-0.13 0.13-0.11 0.14-0.11 0.15-0.1 0.14-0.08 0.15-0.08 0.15-0.07 0.3-0.1 0.15-0.04 0.16-0.02 0.15-0.02 0.16-0.01 0.16 0.01 0.15 0.01 0.16 0.03 0.15 0.03 0.16 0.04 0.15 0.06 0.16 0.06 0.3 0.16 0.15 0.1 0.14 0.1 0.15 0.11 0.28 0.26 0.13 0.15 0.14 0.15 0.13 0.17 0.12 0.17 0.12 0.18 0.12 0.2 0.08 0.12 0.02 0.04 0.06 0.09 0.01 0.04 0.06 0.09 0.01 0.04 0.02 0.03 0.01 0.04 0.04 0.06 0.01 0.04 0.02 0.03 0.01 0.04 0.02 0.03 0.01 0.03 0.02 0.04 0.02 0.03 0.01 0.04 0.02 0.03 0.01 0.04 0.05 0.1 0.01 0.04 0.02 0.03 0.01 0.04 0.02 0.03 0.01 0.04 0.02 0.03 0.02 0.04 0.01 0.03 0.02 0.04 0.01 0.04 0.26 0.51 0.5 1.02 0.25 0.52 0.75 1.53 0.26 0.52 1.25 2.55 0.25 0.52 1 2.04 0.25 0.51 0.5 1.02 0.25 0.51 0.25 0.52 1.5 3.06 0.25 0.52 0.25 0.51 0.26 0.51 0.5 1.02 0.25 0.52 0.75 1.53 0.26 0.52 0.25 0.51 0.02 0.04 0.02 0.05 0.02 0.04 0.02 0.05 0.03 0.04 0.02 0.04 0.02 0.05 0.02 0.04 0.03 0.05 0.02 0.04 0.03 0.05 0.02 0.04 0.03 0.05 0.02 0.04 0.03 0.05 0.02 0.04 0.03 0.05 0.02 0.04 0.03 0.05 0.02 0.04 0.03 0.05 0.02 0.04 0.03 0.05 0.03 0.04 0.02 0.05 0.03 0.05 0.03 0.04 0.02 0.05 0.03 0.05 0.02 0.04 0.06 0.1 0.02 0.04 0.03 0.05 0.02 0.05 0.03 0.05 0.02 0.04 0.03 0.05 0.02 0.05 0.03 0.05 0.36-0.39 0.37-0.39 0.72-0.78 0.37-0.38 0.72-0.78 0.36-0.38 0.37-0.39 0.36-0.39 0.36-0.38 0.36-0.39 0.36-0.38 0.36-0.39 0.72-0.76 0.36-0.39 0.37-0.38 0.36-0.38 0.35-0.39 1.08-1.14 0.36-0.39 1.44-1.52 0.35-0.38 0.36-0.38 0.36-0.39 0.36-0.38 0.35-0.38 0.72-0.76 0.35-0.38 0.72-0.76 0.35-0.38 0.36-0.38 0.07-0.08 0.08-0.08 0.07-0.08 0.08-0.07 0.07-0.08 0.08-0.07 0.07-0.07 0.08-0.07 0.07-0.07 0.08-0.07 0.08-0.06 0.07-0.07 0.16-0.12 0.08-0.05 0.08-0.06 0.24-0.15 0.09-0.04 0.08-0.04 0.09-0.04 0.08-0.04 0.27-0.09 0.18-0.04 0.1-0.02 0.09-0.01 0.1-0.01h0.09l0.1-0.01 0.1 0.01h0.1l0.11 0.02 0.1 0.01 0.22 0.04 0.11 0.03 0.24 0.08 0.11 0.04 0.11 0.05 0.1 0.05 0.1 0.06 0.1 0.05 0.09 0.06 0.09 0.07 0.08 0.06 0.16 0.14 0.07 0.07 0.07 0.08 0.06 0.08 0.07 0.08 0.06 0.08 0.05 0.09 0.06 0.09 0.1 0.18 0.04 0.09 0.05 0.1 0.04 0.09 0.03 0.1 0.08 0.2 0.03 0.11 0.03 0.1 0.03 0.11 0.02 0.11 0.03 0.11 0.02 0.1 0.03 0.12 0.02 0.11 0.02 0.11 0.02 0.11 0.02 0.12 0.01 0.11 0.02 0.11 0.12 0.74 0.05 0.37 0.06 0.37 0.06 0.36 0.05 0.37 0.12 0.74 0.05 0.37 0.12 0.74 0.05 0.37 0.06 0.36 0.06 0.37 0.05 0.37 0.06 0.37 0.05 0.37 0.12 0.74 0.11 0.74 0.05 0.37 0.06 0.37 0.05 0.37 0.12 0.74 0.05 0.37 0.06 0.37 0.05 0.36 0.06 0.37 0.06 0.37 0.05 0.37 0.12 0.74 0.05 0.37 0.06 0.36 0.12 0.74 0.05 0.37 0.06 0.37 0.24 1.54 0.23 1.55 0.24 1.55 0.23 1.55 0.24 1.55 0.23 1.55 0.24 1.55 0.23 1.55 0.24 1.54 0.46 3.1 0.24 1.55 0.23 1.55 0.24 1.55 0.23 1.54 0.24 1.55 0.46 3.1 0.24 1.55 0.23 1.54 0.24 1.55 0.23 1.55 0.24 1.55 0.23 1.54 0.24 1.55 0.23 1.55 0.24 1.54 0.24 1.55 0.23 1.55 0.24 1.54 0.23 1.55 0.24 1.55 0.24 1.54 0.24 1.55 0.23 1.54 0.24 1.55 0.24 1.54 0.24 1.55 0.24 1.54 0.24 1.55 0.01 0.11 0.02 0.1 0.01 0.11 0.02 0.2v0.1l0.01 0.1v0.18l-0.01 0.09v0.09l-0.01 0.09-0.01 0.08-0.02 0.08-0.01 0.08-0.04 0.16-0.03 0.08-0.02 0.07-0.03 0.08-0.03 0.07-0.16 0.28-0.05 0.06-0.05 0.07-0.06 0.06-0.05 0.07-0.07 0.06-0.06 0.06-0.14 0.12-0.07 0.07-0.08 0.05-0.08 0.06-0.27 0.18-0.1 0.06-0.91 0.54-0.92 0.54-1.82 1.08-0.92 0.54-1.82 1.08-0.91 0.55-0.92 0.54-0.91 0.54-0.91 0.55-0.91 0.54-0.92 0.54-0.91 0.55-1.82 1.08-0.91 0.55-0.91 0.54-0.92 0.54-0.91 0.55-2.73 1.62-0.91 0.55-0.92 0.54-2.73 1.62-0.91 0.55-0.92 0.54-2.73 1.62-0.92 0.54-0.91 0.53-1.82 1.08-0.92 0.54-0.91 0.53-0.91 0.54-0.2 0.11-0.2 0.12-0.4 0.22-0.2 0.1-0.21 0.11-0.2 0.11-0.4 0.2-0.21 0.1-0.4 0.2-0.21 0.1-0.2 0.1-0.21 0.09-0.21 0.1-0.2 0.09-0.21 0.1-0.2 0.09-0.21 0.1-0.21 0.09-0.2 0.09-0.42 0.18-0.21 0.1-0.2 0.09-0.63 0.27-0.2 0.09-0.21 0.1-0.63 0.27-0.2 0.1-0.21 0.09-0.21 0.1-0.2 0.09-0.21 0.1-0.21 0.09h-0.72l-0.1-0.04-0.11-0.04-0.11-0.05-0.66-0.24-0.11-0.03-0.12-0.04-0.33-0.12-0.11-0.03-0.12-0.04-0.44-0.16-0.12-0.03-0.44-0.16-0.11-0.05-0.33-0.12-0.1-0.05-0.11-0.04-0.11-0.05-0.1-0.05-0.11-0.05-0.1-0.05-0.11-0.05-0.1-0.05-0.1-0.06-0.1-0.05-0.1-0.06-1.05-0.61-1.04-0.62-1.05-0.61-1.04-0.62-1.05-0.62-1.04-0.61-1.04-0.62-1.05-0.61-3.12-1.86-1.04-0.61-1.05-0.62-2.08-1.24-1.04-0.61-4.16-2.48-1.03-0.61-2.08-1.24-1.04-0.62-1.04-0.62-1.03-0.62-2.08-1.24-1.03-0.62-1.04-0.61-1.03-0.62-2.08-1.24-1.03-0.62-1.04-0.62-2.06-1.24-1.04-0.62-1.03-0.62-1.04-0.62v-1.53l0.01-0.02 0.01-0.03 0.06-0.12 0.01-0.03 0.03-0.06 0.03-0.04 0.07-0.14 0.01-0.03 0.05-0.1v-0.03l0.02-0.04v-0.02l0.01-0.03 0.01-0.02v-0.05l0.01-0.03v-0.1l0.45-3.06 0.15-1.03 0.15-1.02 0.14-1.02 0.15-1.02 0.15-1.03 0.15-1.02 0.14-1.02 0.15-1.02 0.15-1.02 0.15-1.03 0.14-1.02 0.3-2.04 0.14-1.03 0.3-2.04 0.29-2.04 0.15-1.03 0.14-1.02 0.3-2.04 0.14-1.03 0.45-3.06 0.14-1.02 0.15-1.03 0.3-2.04 0.14-1.02 0.15-1.03 0.45-3.06 0.14-1.02 0.15-1.03 0.69-4.68 0.22-1.56 0.46-3.12 0.22-1.57 0.69-4.68 0.22-1.56 0.69-4.68 0.22-1.56 0.69-4.68 0.22-1.56 0.69-4.68 0.22-1.56 0.69-4.68 0.22-1.56 0.69-4.68 0.22-1.56 0.46-3.12 0.22-1.56 0.69-4.68 0.22-1.57 0.46-3.12 0.04-0.26 0.02-0.14 0.04-0.26 0.03-0.13 0.02-0.13 0.02-0.12 0.06-0.26 0.02-0.12 0.03-0.13 0.06-0.24 0.04-0.13 0.03-0.12 0.04-0.12 0.04-0.11 0.08-0.24 0.05-0.11 0.04-0.11 0.06-0.12 0.05-0.11 0.06-0.11 0.05-0.1 0.07-0.11 0.06-0.1 0.14-0.2 0.16-0.2 0.08-0.09 0.09-0.1 0.09-0.09 0.1-0.09 0.1-0.09 0.1-0.08 0.11-0.08 0.11-0.08h2.21l0.06 0.07 0.06 0.08zm15.39 39.11l-2.08 4.2-2.06 4.2-1.04 2.09-1.03 2.1-5.15 10.45-1.03 2.08-1.02 2.09-2.06 4.16-1.02 2.09-1.03 2.08-1.02 2.08-1.03 2.08-3.06 6.24-1.03 2.08-5.1 10.4-1.03 2.08-3.06 6.24-1.02 2.09 1.36-1.45 1.35-1.44 1.36-1.45 1.35-1.44 1.36-1.45 1.35-1.44 1.36-1.44 1.35-1.45 1.36-1.44 2.7-2.88 1.36-1.44 1.35-1.45 1.35-1.44 1.36-1.44 2.7-2.88 1.36-1.44 5.4-5.76 1.36-1.44 5.4-5.76 1.36-1.44 8.1-8.64 1.36-1.44-0.64-1.26-0.32-0.62-0.31-0.63-0.32-0.64-0.64-1.26-0.32-0.64-0.33-0.63-0.32-0.64-0.32-0.63-0.32-0.64-0.33-0.64-0.64-1.28-0.33-0.65-0.32-0.64-0.33-0.64-0.33-0.65-0.32-0.65-0.33-0.65-0.33-0.64-0.33-0.66-0.66-1.3-0.33-0.66-0.33-0.65-0.99-1.98-0.34-0.66-0.33-0.66-0.34-0.66-0.33-0.67-0.34-0.67-1.03 2.11-1.04 2.11z"/>
</defs>
<use fill="#000000" fill-opacity="0" xlink:href="#c"/>
<use fill-opacity="0" stroke="#000000" stroke-opacity="0" xlink:href="#c"/>
<use fill="#000000" fill-opacity="0" xlink:href="#b"/>
<use fill-opacity="0" stroke="#00c7fc" xlink:href="#b"/>
<use fill="#000000" xlink:href="#a"/>
<use fill-opacity="0" stroke="#000000" stroke-opacity="0" xlink:href="#a"/>
</svg>

<?xml version="1.0" encoding="UTF-8" standalone="no"?>
<!DOCTYPE svg PUBLIC "-//W3C//DTD SVG 1.1//EN" "http://www.w3.org/Graphics/SVG/1.1/DTD/svg11.dtd">
<svg version="1.1" xmlns="http://www.w3.org/2000/svg" xmlns:xlink="http://www.w3.org/1999/xlink" preserveAspectRatio="xMidYMid meet" viewBox="0 0 195 202" width="195" height="202"><defs><path d="M192.67 151.21L192.67 51.64L97.5 1.86L2.33 51.64L2.33 151.21L97.5 201L192.67 151.21Z" id="a7mgHqbJwP"></path><path d="M192.67 151.21L192.67 51.64L97.5 1.86L2.33 51.64L2.33 151.21L97.5 201L192.67 151.21Z" id="c11PnvKjm"></path><path d="M66.85 32.33L66.9 32.4L66.96 32.47L67.02 32.55L67.14 32.69L67.2 32.77L67.44 33.05L67.5 33.13L67.74 33.41L67.8 33.49L68.04 33.77L68.1 33.85L68.15 33.92L68.27 34.06L68.32 34.14L68.38 34.21L68.43 34.28L68.49 34.36L68.54 34.43L68.6 34.51L68.65 34.58L68.75 34.74L68.8 34.81L68.9 34.97L68.94 35.05L68.99 35.13L69.29 35.69L69.43 35.98L69.58 36.26L69.73 36.55L69.88 36.83L70.02 37.12L70.17 37.4L70.31 37.69L70.46 37.98L70.6 38.26L70.75 38.55L70.89 38.84L71.04 39.12L71.32 39.7L71.47 39.99L71.61 40.27L71.75 40.56L71.9 40.85L72.04 41.14L72.18 41.42L72.32 41.71L72.47 42L72.61 42.29L72.75 42.57L73.17 43.44L73.32 43.72L73.46 44.01L73.6 44.29L73.88 44.87L74.02 45.15L74.16 45.44L74.3 45.72L74.44 46.01L74.96 47.05L75.2 47.54L76.4 49.94L76.64 50.43L76.87 50.91L77.83 52.83L78.31 53.8L78.79 54.76L79.03 55.25L79.27 55.73L79.5 56.21L79.74 56.7L79.98 57.18L80.23 57.66L80.47 58.15L80.71 58.63L81.19 59.61L81.43 60.09L81.67 60.58L81.92 61.07L82.4 62.05L82.65 62.53L82.89 63.03L83.14 63.52L83.38 64.01L83.63 64.5L83.87 64.99L84.12 65.49L84.37 65.98L84.46 65.83L84.48 65.78L84.57 65.63L84.59 65.58L84.62 65.53L84.65 65.48L84.68 65.44L84.7 65.39L84.75 65.3L84.81 65.2L84.83 65.16L84.86 65.11L84.88 65.07L84.91 65.03L84.93 64.98L84.96 64.94L84.98 64.89L85 64.85L85.03 64.81L85.05 64.76L85.08 64.72L85.1 64.68L85.12 64.63L85.15 64.59L85.17 64.55L85.19 64.5L85.21 64.46L85.23 64.42L85.26 64.37L85.28 64.33L85.3 64.29L85.32 64.24L85.34 64.2L85.36 64.15L85.49 63.88L85.63 63.61L86.02 62.8L86.16 62.53L86.55 61.72L86.69 61.45L86.82 61.18L86.95 60.9L87.08 60.63L87.22 60.36L87.48 59.82L87.62 59.55L87.88 59.01L88.02 58.73L88.28 58.19L88.42 57.92L88.68 57.38L88.82 57.11L88.95 56.84L89.09 56.57L89.35 56.03L89.49 55.76L89.62 55.49L89.76 55.23L89.89 54.96L90.17 54.42L90.3 54.16L90.44 53.89L90.57 53.62L90.71 53.36L90.82 53.16L90.93 52.97L91.04 52.79L91.16 52.62L91.28 52.47L91.41 52.32L91.54 52.18L91.68 52.05L91.81 51.94L91.95 51.83L92.1 51.73L92.24 51.65L92.39 51.57L92.54 51.5L92.84 51.4L92.99 51.36L93.15 51.34L93.3 51.32L93.46 51.31L93.62 51.32L93.77 51.33L93.93 51.36L94.08 51.39L94.24 51.43L94.39 51.49L94.55 51.55L94.85 51.71L95 51.81L95.14 51.91L95.29 52.02L95.57 52.28L95.7 52.43L95.84 52.58L95.97 52.75L96.09 52.92L96.21 53.1L96.33 53.3L96.41 53.42L96.43 53.46L96.49 53.55L96.5 53.59L96.56 53.68L96.57 53.72L96.59 53.75L96.6 53.79L96.64 53.85L96.65 53.89L96.67 53.92L96.68 53.96L96.7 53.99L96.71 54.02L96.73 54.06L96.75 54.09L96.76 54.13L96.78 54.16L96.79 54.2L96.84 54.3L96.85 54.34L96.87 54.37L96.88 54.41L96.9 54.44L96.91 54.48L96.93 54.51L96.95 54.55L96.96 54.58L96.98 54.62L96.99 54.66L97.25 55.17L97.75 56.19L98 56.71L98.75 58.24L99.01 58.76L100.26 61.31L100.51 61.83L101.51 63.87L101.76 64.38L102.26 65.4L102.51 65.91L102.76 66.43L104.26 69.49L104.51 70.01L104.76 70.52L105.02 71.03L105.52 72.05L105.77 72.57L106.52 74.1L106.78 74.62L107.03 75.13L107.05 75.17L107.07 75.22L107.09 75.26L107.11 75.31L107.14 75.35L107.16 75.39L107.18 75.44L107.2 75.48L107.23 75.53L107.25 75.57L107.28 75.62L107.3 75.66L107.33 75.71L107.35 75.75L107.38 75.8L107.4 75.84L107.43 75.89L107.45 75.93L107.48 75.98L107.5 76.02L107.53 76.07L107.55 76.11L107.58 76.16L107.61 76.2L107.63 76.25L107.66 76.3L107.69 76.34L107.71 76.39L107.74 76.44L107.76 76.48L107.82 76.58L107.84 76.62L107.87 76.67L107.89 76.72L107.92 76.77L107.94 76.81L107.97 76.86L107.99 76.91L108.02 76.96L108.38 76.57L108.75 76.18L109.47 75.4L109.84 75.02L110.56 74.24L110.92 73.86L111.29 73.47L111.65 73.08L112.01 72.7L112.37 72.31L112.73 71.93L113.09 71.54L113.81 70.78L114.17 70.39L114.54 70.01L114.9 69.63L115.25 69.24L116.33 68.1L116.69 67.71L118.13 66.19L118.48 65.81L118.84 65.43L119.2 65.04L119.56 64.66L119.91 64.28L120.63 63.52L120.98 63.14L121.7 62.38L122.05 62L122.41 61.62L122.48 61.54L122.56 61.46L122.63 61.38L122.71 61.31L122.78 61.23L122.86 61.16L122.93 61.09L123.01 61.02L123.08 60.95L123.16 60.88L123.24 60.82L123.31 60.75L123.47 60.63L123.55 60.58L123.63 60.52L123.87 60.37L123.96 60.33L124.04 60.29L124.13 60.25L124.21 60.21L124.48 60.12L124.66 60.08L124.76 60.06L124.85 60.05L124.95 60.04L125.04 60.04L125.14 60.03L125.24 60.04L125.34 60.04L125.45 60.06L125.55 60.07L125.77 60.11L125.88 60.14L126.12 60.22L126.23 60.26L126.34 60.31L126.44 60.36L126.54 60.42L126.64 60.47L126.73 60.53L126.82 60.6L126.9 60.66L127.06 60.8L127.13 60.87L127.2 60.95L127.26 61.03L127.33 61.11L127.39 61.19L127.44 61.28L127.5 61.37L127.6 61.55L127.64 61.64L127.69 61.74L127.73 61.83L127.76 61.93L127.84 62.13L127.87 62.24L127.9 62.34L127.93 62.45L127.95 62.56L127.98 62.67L128 62.77L128.03 62.89L128.05 63L128.07 63.11L128.09 63.22L128.11 63.34L128.12 63.45L128.14 63.56L128.26 64.3L128.31 64.67L128.37 65.04L128.43 65.4L128.48 65.77L128.6 66.51L128.65 66.88L128.77 67.62L128.82 67.99L128.88 68.35L128.94 68.72L128.99 69.09L129.05 69.46L129.1 69.83L129.22 70.57L129.33 71.31L129.38 71.68L129.44 72.05L129.49 72.42L129.61 73.16L129.66 73.53L129.72 73.9L129.77 74.26L129.83 74.63L129.89 75L129.94 75.37L130.06 76.11L130.11 76.48L130.17 76.84L130.29 77.58L130.34 77.95L130.4 78.32L130.64 79.86L130.87 81.41L131.11 82.96L131.34 84.51L131.58 86.06L131.81 87.61L132.05 89.16L132.28 90.71L132.52 92.25L132.98 95.35L133.22 96.9L133.45 98.45L133.69 100L133.92 101.54L134.16 103.09L134.62 106.19L134.86 107.74L135.09 109.28L135.33 110.83L135.56 112.38L135.8 113.93L136.03 115.47L136.27 117.02L136.5 118.57L136.74 120.11L136.98 121.66L137.21 123.21L137.45 124.75L137.68 126.3L137.92 127.85L138.16 129.39L138.4 130.94L138.63 132.48L138.87 134.03L139.11 135.57L139.35 137.12L139.59 138.66L139.83 140.21L139.84 140.32L139.86 140.42L139.87 140.53L139.89 140.73L139.89 140.83L139.9 140.93L139.9 141.11L139.89 141.2L139.89 141.29L139.88 141.38L139.87 141.46L139.85 141.54L139.84 141.62L139.8 141.78L139.77 141.86L139.75 141.93L139.72 142.01L139.69 142.08L139.53 142.36L139.48 142.42L139.43 142.49L139.37 142.55L139.32 142.62L139.25 142.68L139.19 142.74L139.05 142.86L138.98 142.93L138.9 142.98L138.82 143.04L138.55 143.22L138.45 143.28L137.54 143.82L136.62 144.36L134.8 145.44L133.88 145.98L132.06 147.06L131.15 147.61L130.23 148.15L129.32 148.69L128.41 149.24L127.5 149.78L126.58 150.32L125.67 150.87L123.85 151.95L122.94 152.5L122.03 153.04L121.11 153.58L120.2 154.13L117.47 155.75L116.56 156.3L115.64 156.84L112.91 158.46L112 159.01L111.08 159.55L108.35 161.17L107.43 161.71L106.52 162.24L104.7 163.32L103.78 163.86L102.87 164.39L101.96 164.93L101.76 165.04L101.56 165.16L101.16 165.38L100.96 165.48L100.75 165.59L100.55 165.7L100.15 165.9L99.94 166L99.54 166.2L99.33 166.3L99.13 166.4L98.92 166.49L98.71 166.59L98.51 166.68L98.3 166.78L98.1 166.87L97.89 166.97L97.68 167.06L97.48 167.15L97.06 167.33L96.85 167.43L96.65 167.52L96.02 167.79L95.82 167.88L95.61 167.98L94.98 168.25L94.78 168.35L94.57 168.44L94.36 168.54L94.16 168.63L93.95 168.73L93.74 168.82L93.02 168.82L92.92 168.78L92.81 168.74L92.7 168.69L92.04 168.45L91.93 168.42L91.81 168.38L91.48 168.26L91.37 168.23L91.25 168.19L90.81 168.03L90.69 168L90.25 167.84L90.14 167.79L89.81 167.67L89.71 167.62L89.6 167.58L89.49 167.53L89.39 167.48L89.28 167.43L89.18 167.38L89.07 167.33L88.97 167.28L88.87 167.22L88.77 167.17L88.67 167.11L87.62 166.5L86.58 165.88L85.53 165.27L84.49 164.65L83.44 164.03L82.4 163.42L81.36 162.8L80.31 162.19L77.19 160.33L76.15 159.72L75.1 159.1L73.02 157.86L71.98 157.25L67.82 154.77L66.79 154.16L64.71 152.92L63.67 152.3L62.63 151.68L61.6 151.06L59.52 149.82L58.49 149.2L57.45 148.59L56.42 147.97L54.34 146.73L53.31 146.11L52.27 145.49L50.21 144.25L49.17 143.63L48.14 143.01L47.1 142.39L47.1 140.86L47.11 140.84L47.12 140.81L47.18 140.69L47.19 140.66L47.22 140.6L47.25 140.56L47.32 140.42L47.33 140.39L47.38 140.29L47.38 140.26L47.4 140.22L47.4 140.2L47.41 140.17L47.42 140.15L47.42 140.1L47.43 140.07L47.43 139.97L47.88 136.91L48.03 135.88L48.18 134.86L48.32 133.84L48.47 132.82L48.62 131.79L48.77 130.77L48.91 129.75L49.06 128.73L49.21 127.71L49.36 126.68L49.5 125.66L49.8 123.62L49.94 122.59L50.24 120.55L50.53 118.51L50.68 117.48L50.82 116.46L51.12 114.42L51.26 113.39L51.71 110.33L51.85 109.31L52 108.28L52.3 106.24L52.44 105.22L52.59 104.19L53.04 101.13L53.18 100.11L53.33 99.08L54.02 94.4L54.24 92.84L54.7 89.72L54.92 88.15L55.61 83.47L55.83 81.91L56.52 77.23L56.74 75.67L57.43 70.99L57.65 69.43L58.34 64.75L58.56 63.19L59.25 58.51L59.47 56.95L60.16 52.27L60.38 50.71L60.84 47.59L61.06 46.03L61.75 41.35L61.97 39.78L62.43 36.66L62.47 36.4L62.49 36.26L62.53 36L62.56 35.87L62.58 35.74L62.6 35.62L62.66 35.36L62.68 35.24L62.71 35.11L62.77 34.87L62.81 34.74L62.84 34.62L62.88 34.5L62.92 34.39L63 34.15L63.05 34.04L63.09 33.93L63.15 33.81L63.2 33.7L63.26 33.59L63.31 33.49L63.38 33.38L63.44 33.28L63.58 33.08L63.74 32.88L63.82 32.79L63.91 32.69L64 32.6L64.1 32.51L64.2 32.42L64.3 32.34L64.41 32.26L64.52 32.18L66.73 32.18L66.79 32.25L66.85 32.33ZM82.24 71.44L80.16 75.64L78.1 79.84L77.06 81.93L76.03 84.03L70.88 94.48L69.85 96.56L68.83 98.65L66.77 102.81L65.75 104.9L64.72 106.98L63.7 109.06L62.67 111.14L59.61 117.38L58.58 119.46L53.48 129.86L52.45 131.94L49.39 138.18L48.37 140.27L49.73 138.82L51.08 137.38L52.44 135.93L53.79 134.49L55.15 133.04L56.5 131.6L57.86 130.16L59.21 128.71L60.57 127.27L63.27 124.39L64.63 122.95L65.98 121.5L67.33 120.06L68.69 118.62L71.39 115.74L72.75 114.3L78.15 108.54L79.51 107.1L84.91 101.34L86.27 99.9L94.37 91.26L95.73 89.82L95.09 88.56L94.77 87.94L94.46 87.31L94.14 86.67L93.5 85.41L93.18 84.77L92.85 84.14L92.53 83.5L92.21 82.87L91.89 82.23L91.56 81.59L90.92 80.31L90.59 79.66L90.27 79.02L89.94 78.38L89.61 77.73L89.29 77.08L88.96 76.43L88.63 75.79L88.3 75.13L87.64 73.83L87.31 73.17L86.98 72.52L85.99 70.54L85.65 69.88L85.32 69.22L84.98 68.56L84.65 67.89L84.31 67.22L83.28 69.33L82.24 71.44Z" id="dHmfhtBbN"></path></defs><g><g><g><use xlink:href="#a7mgHqbJwP" opacity="1" fill="#000000" fill-opacity="0"></use><g><use xlink:href="#a7mgHqbJwP" opacity="1" fill-opacity="0" stroke="#000000" stroke-width="1" stroke-opacity="0"></use></g></g><g><use xlink:href="#c11PnvKjm" opacity="1" fill="#000000" fill-opacity="0"></use><g><use xlink:href="#c11PnvKjm" opacity="1" fill-opacity="0" stroke="#00c7fc" stroke-width="1" stroke-opacity="1"></use></g></g><g><use xlink:href="#dHmfhtBbN" opacity="1" fill="#000000" fill-opacity="1"></use><g><use xlink:href="#dHmfhtBbN" opacity="1" fill-opacity="0" stroke="#000000" stroke-width="1" stroke-opacity="0"></use></g></g></g></g></svg>
